X: 188
T: North Carolina Breakdown
B: canberra pickers and fiddlers
B: old time tunes update
B: tunes
M:4/4
L:1/8
Q: 1/4=100
K:G
V:1 
G2 GGED EF|GFGA Bdef|1 g2 f2 ed ef|gagf edBA:|2 g2 f2 edBA|dBAF (G2 G2 )||
e2 e2 (e2 e2)|ee e2 (e2 e2)|d2 d2 (d2 d2)|dd d2 (d2 d2)|
e3 z e3 z|b2 bbag ef| gagf edBA|dBAF (G2 G2)|>|
% abcbook-tune_id 67a7d9ec280ad7f660843c0e
% abcbook-tune_composer_id 
% abcbook-link-0 https://www.youtube.com/watch?v=so6ci1ot_J8
% abcbook-link-title-0 North Carolina Breakdown - Foggy Mountain Boys
% abcbook-boost 0
% abcbook-difficulty 0
% abcbook-tags old time tunes
% abcbook-tablature 
% abcbook-transpose 
% abcbook-tuning GDAD
% abcbook-lastupdated 1739180502786
% abcbook-src-url 
% abcbook-soundfonts 
% abcbook-repeats 1
% Titles One title
% Transcriptions Only 1 transcription
% Movement Has some stepwise movement
% Mode major
% Key G
% Time_signature 4/4
% Has_accompaniment_chords No chords

